X:944031
T:The Sound of Silence 3Voice P2
H: 
B: https://musescore.com/georgewu/ptxsoundofsilence, https://musescore.com/abchords321/scores/5449091
C:Simon and Garfunkel (Pentatonix / disturbed)
O:Transcribed by Kevin Fraser
Z:Kevin Fraser
Q:1/4=90
K:AMix
M:4/4
L:1/8
U: R = ///
U: r = //
I:MIDI=program 110
%%MIDI gracedivider 100
V:M gstem=up stem=down name="Melody" sname=Melody transpose=2
V:H gstem=up stem=down name="Chord" sname=Ch transpose=2
V:C gstem=up stem=down name="Bass" sname=Bass  transpose=2
V:3 gstem=up stem=down name="Piper 3" sname=P3 transpose=2
V:4 gstem=up stem=down name="Piper 4" sname=P4 transpose=2
V:BB gstem=up stem=down name="Brass Bass" sname="ABCD-C" transpose=2  octave=-1 clef=bass
V:BC gstem=up stem=down name="Brass Chord" sname="ABCD-D" transpose=2
V:BD gstem=up stem=down name="Brass Chord 2" sname="ABCD-B" transpose=2
V:P gstem=up stem=down name="Piano" sname="Piano" octave=-1 clef=treble transpose=2
V:Strings gstem=up stem=down name="Strings" sname="Strings" octave=1 clef=treble transpose=2
V:Timpani gstem=up stem=down name="Timpani" sname="Timpani" octave=0 clef=treble transpose=2
V:Guitar gstem=up stem=down name="Guitar" sname="Guitar" octave=0 clef=treble transpose=2
%%landscape 
% %score {M 1 2}
[V:M]
%%MIDI voice M instrument=110     %Piano
%%MIDI program 110
%%MIDI channel 1
[V:H]
%%MIDI voice M instrument=110     %Piano
%%MIDI program 110
%%MIDI channel 1
[V:C]
%%MIDI voice M instrument=110     %Piano
%%MIDI program 110
%%MIDI channel 1
[V:M] [| !mf!A2                  {g}A{d}A {g}c{d}c {g}e{G}e | {gde}d8-                                                       | d2                   {g}G{d}G {g}B{d}B {g}d{e}d | {gcd}c8-                                  | cA                        {g}A{d}A {g}c{d}c {g}e{G}e | $ 
[V:H] [| !mf!f2                  {g}A{d}A {g}c{d}c {g}e{G}e | f8-                                                            | d2                   {g}G{d}G {g}B{d}B {g}d{e}d | {gef}e4                   {gcd}c4-        | {gef}e4                   {g}c{d}c {g}e{G}e          |$ 
[V:C] [| !p!{gfg}f4             {AGAG}A4                   | {g}A4{g}B4                                                     | A8                                              | A4                        G4              | A4                        G2 {g}A2                   | $ 
% %barsperstaff 4
[V:M]                {g}f2{A}f{g}e-e4-                   | e2              {g}A{d}A {g}c{d}c {g}e{G}e |  {g}f2{A}f{g}e-e4-                           |  [M:2/4]e2           {g}A{d}A                   |[M:4/4]                           {g}f2 {g}ff- f2 {g}fg        | $
[V:H]                d2{g}dc-           c4               | c2              e2 {g}c{d}c c2             |  d2                      {g}dc- c4           |  [M:2/4]ed           c2                         |[M:4/4]                           {AGAG}A4- d2{g}de            | $
[V:C]                {g}A8                               | {g}A8                                      |  d2                      A6                  |  [M:2/4]{AGAG}A4                                |[M:4/4]                           {gde}d4- {AGAG}A4            | $
% %barsperstaff 4
[V:M]                 {ag}a{g}a-           a2 {f}gf- f{gef}e-         | e4-                       eA {g}fe        | {gcd}c8-                                             | [M:2/4]cA          {g}A{d}A         | [M:4/4]{gef}e6- eG                         |  {g}A                    f7                  |] $
[V:H]                 f2{g}f{g}f           {g}e{g}d- d{gcd}c-         | c6-                       {g}c2           | {g}f3G{g}A2{g}f2                                     | [M:2/4]{AGAG}A4                     | [M:4/4]{g}c8                               |  {g}Ac                   {g}Bd {g}Ac {g}GB   |] $
[V:C]                 {g}A8                                           | {g}A4                     {g}A4           | {g}A3B{g}A2{d}c2                                     | [M:2/4]{gef}e4                      | [M:4/4]{g}A8                               |  {g}c2                   {g}d2 {g}c2 {g}B2   |] $
W: Use Gracenotes or Strikes to separate repeated notes that don't have gracenote separators.
[V:P]
%%MIDI channel 2
%%MIDI voice P instrument=1     %Piano
%%MIDI program 1
[V:P] [| !ff!C-F,- A2-  [F,CA]4 |  E,-B,FB,  GEB,F| 
[V:P]  [E,B-] [EB]3-  [EB]4 | F,CGC  AFCG | C-F,- A2-  [F,CA]4 |
[V:P] D,A,D [A,EA]-  [A,EA]3- [A,EAA,,]| A,,4  [A,,-A,CE][A,CE][A,CE][A,CE] |D,A,D [A,EA]-  [A,EA]3- [A,EAA,,] | [M:2/4]A,,4 | 
[V:P] [M:4/4]D,A,DA,  FA,DA, | D,A,DA,  FA,DA, | A,EAE  CEAE | F,CFG  A3A, | A,4 | EBef  g3g | 
[V:P] [Ff]c bc  ac gc |]
[V:Guitar]
%%MIDI channel 4
%%MIDI voice Guitar instrument=30     %Piano
%%MIDI program 28
%%MIDI vol 100
[V:Guitar Clef=treble][|!pp! "A" [F,CA]cac [F,CA]cac |
[V:Guitar][A,FD]afa [A,FD]afa |
[V:Guitar][DGB]dbd [DGB]dbd |
[V:Guitar][Ace]ece [Gce]geg |
[V:Guitar][CA]ece [CA]ece |
[V:Guitar]D,A,D [A,EA]-  A,EC [A,EAA,,]| A,,4  [A,,-A,CE][A,CE][A,CE][A,CE] |D,A,D [A,EA]-  A,EC [A,EAA,,] | [M:2/4]A,,-[A,,-E,][A,,-C,][A,,-E,] |
[V:Guitar][M:4/4][DFA]-[D-F-A-a][D-F-A-f][DFAa] [DFA]-[D-F-A-a][D-F-A-f][DFAa] |
[V:Guitar][DFA]-[D-F-A-a][D-F-A-f][DFAa] [DFA]-[D-F-A-a][D-F-A-f][DFAa] |
[V:Guitar][AEC]-[A-E-C-e][A-E-C-c][AECe] [AEC]-[A-E-C-e][A-E-C-c][AECe] |
[V:Guitar][F-A-C-][F-A-C-c][F-A-C-a][FACc] [F-A-C-][F-A-C-c][F-A-C-a][FACc] |
[V:Guitar][M:2/4] [Ace]ece |
[V:Guitar][M:4/4][E-A-C-][E-A-C-e][E-A-C-c][EACe] [E-A-C-][E-A-C-e][E-A-C-c][EACe] |
[V:Guitar][Ff]c bc  ac gc |]
[V:Strings]
%%MIDI channel 6
%%MIDI program 49 %strings
% %MIDI vol 100
[V:Strings] [|Z | !p![DA,]8 | [G,D]8 | !p![CG]8 | [A,E]8 | 
[V:Strings] [FC]3 [EB]5 | E2 A6 | F3 E5 |[M:2/4]!mf! E2 A2 |[M:4/4] F7 G | 
[V:Strings] A4 GF2E | E8 | C8 |[M:2/4] A4 |[M:4/4] E8 | F8 |]
[V:Timpani]
%%MIDI channel 8
% %MIDI program 48 %Timpani
%%MIDI program 117 %Taiko DruM
% %MIDI program 119 %Melodic Tom
%%MIDI vol 100
[V:Timpani] Z | !ff!F4 z4 | 
[V:Timpani] Z |
[V:Timpani] C8 | 
[V:Timpani] Z |
[V:Timpani] F2 F E//E//E//E// E//E//E//E// E//E//E//E// E//E//E//E// E//E//E//E//  |
[V:Timpani] Z |
[V:Timpani] [V:Timpani] F2 F E//E//E//E// E//E//E//E// E//E//E//E// E//E//E//E// E//E//E//E//  |
[V:Timpani] [M:2/4]Z |
[V:Timpani] [M:4/4]F2 z6 |
[V:Timpani] A4 z4 |
[V:Timpani] E4 z4 |
[V:Timpani] C4 z4 |
[V:Timpani] [M:2/4]Z |
[V:Timpani] [M:4/4]E4 z1 E |
[V:Timpani] F4 z4 |]
w:        In rest-less dreams I walked a-|lone     |     narrow streets of cobble  | stone   |  beneath the ha-lo    of a   |
w:         street lamp     | I turned my collar to the     | cold and damp  |           When my  |$
w:    |        eyes  were stabbed by the|flash of  a  ne-on  light   | that  split the | night          |       and touched the| sound of    | silence             |] $


